X:196
T:Juniper Hill THO4.196
M:6/8
L:1/8
Z:vmp. Peter Dunk 2010/11.from a transcription by Fynn Titford-Mock 2007
B:Thompson's Compleat Collection of 200 Favourite Country Dances Volume IV.
Q:3/8=100
K:G
B/c/|dBG cAF|GBd g2 f|edc BAG|FAA A2 B/c/|\
dBG cAF|GBd g2 b|agf ed^c|d3 d2:|
|:f/g/|afd dfg|afd g2 B|cec BdB|cAA A2 B/c/|\
dBd ece|fdf g2 e|dcB AGF|G3 G2:|
